build/images/content/benefits/img_1.svg

<svg width="80" height="80" viewBox="0 0 80 80" fill="none" xmlns="http://www.w3.org/2000/svg">
<g clip-path="url(#clip0)">
<path d="M67.974 26.7332C67.9732 26.7332 67.9722 26.7332 67.9713 26.7332H1.1454C0.513558 26.7325 0.000668913 27.244 6.53983e-07 27.8759C6.53983e-07 27.8767 6.53983e-07 27.8777 6.53983e-07 27.8786V59.955C-0.000667605 60.5868 0.510885 61.0997 1.14272 61.1004C1.14356 61.1004 1.14456 61.1004 1.1454 61.1004H46.587C47.2195 61.1004 47.7324 60.5875 47.7324 59.955C47.7324 59.3225 47.2195 58.8096 46.587 58.8096H2.29079V29.0239H66.8259V31.8881C66.8253 32.5199 67.3368 33.0328 67.9687 33.0335C67.9695 33.0335 67.9705 33.0335 67.9713 33.0335C68.6032 33.0342 69.1161 32.5226 69.1167 31.8908C69.1167 31.8899 69.1167 31.8889 69.1167 31.8881V27.8786C69.1174 27.2467 68.6059 26.734 67.974 26.7332Z" fill="white"/>
<path d="M60.2031 21.4153L6.74239 9.3866C6.44568 9.32028 6.13477 9.37407 5.87766 9.53629C5.62088 9.69985 5.43928 9.9583 5.37246 10.2553L2.69942 22.284C2.56209 22.9018 2.95169 23.5139 3.56949 23.6513C4.1873 23.7886 4.79942 23.399 4.93675 22.7812L7.35986 11.8739L59.7006 23.6499C59.7835 23.6691 59.8682 23.6787 59.9532 23.678C60.5857 23.6768 61.0976 23.1631 61.0966 22.5306C61.0956 21.9958 60.7247 21.533 60.2031 21.4153Z" fill="white"/>
<path d="M53.7117 14.7876L21.6353 1.42244C21.0778 1.19005 20.4354 1.42879 20.1651 1.96908L17.4921 7.31515C17.1902 7.87348 17.398 8.57098 17.9565 8.87287C18.5148 9.17475 19.2123 8.96692 19.5142 8.40842C19.5261 8.38654 19.5373 8.36415 19.5476 8.34143V8.34411L21.7409 3.95498L52.8269 16.9072C53.4123 17.1514 54.0849 16.8751 54.3292 16.2897C54.5734 15.7046 54.2971 15.032 53.7117 14.7876Z" fill="white"/>
<path d="M54.5219 32.0793H43.9139C43.2814 32.0793 42.7686 32.5922 42.7686 33.2247C42.7686 33.8572 43.2814 34.3701 43.9139 34.3701H54.5219C55.1544 34.3701 55.6673 33.8572 55.6673 33.2247C55.6673 32.5922 55.1544 32.0793 54.5219 32.0793Z" fill="white"/>
<path d="M33.2223 32.1555C26.7267 32.1555 21.4609 37.4212 21.4609 43.9169C21.4676 50.4097 26.7295 55.6716 33.2223 55.6783C39.718 55.6783 44.9837 50.4125 44.9837 43.9169C44.9837 37.4212 39.718 32.1555 33.2223 32.1555ZM33.2223 53.5398C27.9076 53.5398 23.5994 49.2316 23.5994 43.9169C23.6052 38.6047 27.9101 34.2998 33.2223 34.2939C38.537 34.2939 42.8452 38.6022 42.8452 43.9169C42.8452 49.2316 38.537 53.5398 33.2223 53.5398Z" fill="#00BBD3"/>
<path d="M65.2984 35.8977C58.2148 35.8977 50.5967 37.571 50.5967 41.2438V73.3202C50.5967 76.993 58.2148 78.6663 65.2984 78.6663C72.3819 78.6663 80.0001 76.993 80.0001 73.3202V41.2438C80.0001 37.571 72.3819 35.8977 65.2984 35.8977ZM77.327 73.3002C77.1252 74.0419 73.117 75.9933 65.2984 75.9933C57.4798 75.9933 53.4715 74.0419 53.2697 73.3202V71.2192C56.1138 72.652 60.8117 73.3202 65.2984 73.3202C69.7851 73.3202 74.4843 72.6453 77.327 71.2179V73.3002ZM77.327 67.9541C77.1252 68.6959 73.117 70.6472 65.2984 70.6472C57.4798 70.6472 53.4715 68.6959 53.2697 67.9741V65.8731C56.1138 67.3059 60.8117 67.9741 65.2984 67.9741C69.7851 67.9741 74.4843 67.2992 77.327 65.8718V67.9541ZM77.327 62.608C77.1252 63.3498 73.117 65.3011 65.2984 65.3011C57.4798 65.3011 53.4715 63.3498 53.2697 62.6281V60.5271C56.1138 61.9598 60.8117 62.6281 65.2984 62.6281C69.7851 62.6281 74.4843 61.9531 77.327 60.5257V62.608ZM77.327 57.2619C77.1252 58.0037 73.117 59.955 65.2984 59.955C57.4798 59.955 53.4715 58.0037 53.2697 57.282V55.181C56.1138 56.6137 60.8117 57.282 65.2984 57.282C69.7851 57.282 74.4843 56.6071 77.327 55.1797V57.2619ZM77.327 51.9159C77.1252 52.6576 73.117 54.609 65.2984 54.609C57.4798 54.609 53.4715 52.6576 53.2697 51.9359V49.8349C56.1138 51.261 60.8117 51.9359 65.2984 51.9359C69.7851 51.9359 74.4843 51.261 77.327 49.8336V51.9159ZM77.327 46.5698C77.1252 47.3116 73.117 49.2629 65.2984 49.2629C57.4798 49.2629 53.4715 47.3116 53.2697 46.5898V44.4888C56.1138 45.9149 60.8117 46.5898 65.2984 46.5898C69.7851 46.5898 74.4843 45.9149 77.327 44.4875V46.5698ZM65.2984 43.9168C57.4918 43.9168 53.4849 41.9708 53.2697 41.2678V41.2598C53.4849 40.5154 57.4918 38.5707 65.2984 38.5707C73.0502 38.5707 77.0597 40.4873 77.327 41.2438C77.0597 42.0002 73.0502 43.9168 65.2984 43.9168Z" fill="white"/>
<path d="M22.5297 53.4623H12.4269L7.63686 48.2232V39.5358L12.9268 34.3701H22.5297C23.1622 34.3701 23.6751 33.8573 23.6751 33.2247C23.6751 32.5922 23.1622 32.0793 22.5297 32.0793H12.4617C12.1623 32.0787 11.8745 32.1953 11.6598 32.4041L5.68955 38.2273C5.46652 38.488 5.34423 38.8199 5.34473 39.1629V48.6682C5.34473 48.9541 5.45148 49.2296 5.64411 49.4407L11.0744 55.3802C11.2914 55.6178 11.5985 55.7533 11.9204 55.7531H22.5297C23.1622 55.7531 23.6751 55.2402 23.6751 54.6077C23.6751 53.9752 23.1624 53.4623 22.5297 53.4623Z" fill="white"/>
<path d="M33.8897 42.5802H32.5532C32.1376 42.5802 31.885 42.3476 31.885 42.246C31.885 42.1444 32.1376 41.9119 32.5532 41.9119H35.8945C36.6326 41.9119 37.231 41.3135 37.231 40.5754C37.231 39.8373 36.6326 39.2389 35.8945 39.2389H34.558C34.558 38.5008 33.9596 37.9023 33.2215 37.9023C32.4834 37.9023 31.885 38.5008 31.885 39.2389V39.299C30.4026 39.5083 29.2796 40.7438 29.2119 42.2393C29.3076 43.9917 30.8002 45.3381 32.5532 45.2532H33.8897C34.3054 45.2532 34.558 45.4857 34.558 45.5873C34.558 45.6889 34.3054 45.9214 33.8897 45.9214H30.5484C29.8103 45.9214 29.2119 46.5199 29.2119 47.258C29.2119 47.9961 29.8103 48.5945 30.5484 48.5945H31.885C31.885 49.3326 32.4834 49.931 33.2215 49.931C33.9596 49.931 34.558 49.3326 34.558 48.5945V48.5343C36.0404 48.325 37.1634 47.0896 37.231 45.594C37.1353 43.8417 35.6427 42.4953 33.8897 42.5802Z" fill="white"/>
</g>
<defs>
<clipPath id="clip0">
<rect width="80" height="80" fill="white"/>
</clipPath>
</defs>
</svg>

<svg width="80" height="80" fill="none" xmlns="http://www.w3.org/2000/svg"><g clip-path="url(#clip0)"><path d="M67.974 26.733H1.145c-.631 0-1.144.511-1.145 1.143v32.079c0 .632.51 1.145 1.143 1.145h45.444a1.146 1.146 0 000-2.29H2.291V29.024h64.535v2.864c0 .632.51 1.145 1.143 1.145h.002a1.144 1.144 0 001.146-1.142v-4.013c0-.631-.511-1.144-1.143-1.145zm-7.771-5.318L6.743 9.387a1.15 1.15 0 00-.865.15 1.152 1.152 0 00-.506.718L2.7 22.284a1.146 1.146 0 002.238.497L7.36 11.874 59.7 23.65a1.146 1.146 0 00.502-2.235zm-6.491-6.627L21.635 1.422a1.15 1.15 0 00-1.47.547l-2.673 5.346a1.15 1.15 0 102.056 1.026v.003l2.193-4.389 31.086 12.952a1.149 1.149 0 00.885-2.12z" fill="#fff"/><path d="M54.522 32.08H43.914a1.145 1.145 0 000 2.29h10.608a1.146 1.146 0 000-2.29z" fill="#fff"/><path d="M33.222 32.156c-6.495 0-11.761 5.265-11.761 11.76.007 6.494 5.269 11.756 11.761 11.762 6.496 0 11.762-5.265 11.762-11.761 0-6.496-5.266-11.761-11.762-11.761zm0 21.384a9.623 9.623 0 01-9.623-9.623 9.634 9.634 0 019.623-9.623 9.623 9.623 0 019.623 9.623 9.623 9.623 0 01-9.623 9.623z" fill="#00BBD3"/><path d="M65.298 35.898c-7.083 0-14.701 1.673-14.701 5.346V73.32c0 3.673 7.618 5.346 14.701 5.346C72.382 78.666 80 76.993 80 73.32V41.244c0-3.673-7.618-5.346-14.702-5.346zM77.327 73.3c-.202.742-4.21 2.693-12.029 2.693-7.818 0-11.827-1.951-12.028-2.673v-2.1c2.844 1.432 7.542 2.1 12.028 2.1 4.487 0 9.186-.675 12.029-2.102V73.3zm0-5.346c-.202.742-4.21 2.693-12.029 2.693-7.818 0-11.827-1.951-12.028-2.673v-2.1c2.844 1.432 7.542 2.1 12.028 2.1 4.487 0 9.186-.675 12.029-2.102v2.082zm0-5.346c-.202.742-4.21 2.693-12.029 2.693-7.818 0-11.827-1.951-12.028-2.673v-2.1c2.844 1.432 7.542 2.1 12.028 2.1 4.487 0 9.186-.675 12.029-2.102v2.082zm0-5.346c-.202.742-4.21 2.693-12.029 2.693-7.818 0-11.827-1.951-12.028-2.673v-2.101c2.844 1.433 7.542 2.101 12.028 2.101 4.487 0 9.186-.675 12.029-2.102v2.082zm0-5.346c-.202.742-4.21 2.693-12.029 2.693-7.818 0-11.827-1.951-12.028-2.673v-2.101c2.844 1.426 7.542 2.1 12.028 2.1 4.487 0 9.186-.674 12.029-2.101v2.082zm0-5.346c-.202.742-4.21 2.693-12.029 2.693-7.818 0-11.827-1.951-12.028-2.673v-2.101c2.844 1.426 7.542 2.1 12.028 2.1 4.487 0 9.186-.674 12.029-2.102v2.083zm-12.029-2.653c-7.806 0-11.813-1.946-12.028-2.65v-.007c.215-.745 4.222-2.69 12.028-2.69 7.752 0 11.762 1.917 12.029 2.674-.267.756-4.277 2.673-12.029 2.673zM22.53 53.462H12.427l-4.79-5.239v-8.687l5.29-5.166h9.603a1.145 1.145 0 000-2.29H12.462c-.3-.001-.588.115-.802.324l-5.97 5.823a1.435 1.435 0 00-.345.936v9.505c0 .286.106.562.3.773l5.43 5.94c.216.237.524.372.845.372h10.61a1.146 1.146 0 000-2.29zM33.89 42.58h-1.337c-.415 0-.668-.232-.668-.334 0-.102.253-.334.668-.334h3.342a1.337 1.337 0 000-2.673h-1.337a1.337 1.337 0 00-2.673 0v.06a3.111 3.111 0 00-2.673 2.94 3.192 3.192 0 003.341 3.014h1.337c.415 0 .668.233.668.334 0 .102-.253.334-.668.334h-3.342a1.337 1.337 0 000 2.673h1.337a1.337 1.337 0 002.673 0v-.06a3.111 3.111 0 002.673-2.94 3.192 3.192 0 00-3.341-3.014z" fill="#fff"/></g><defs><clipPath id="clip0"><path fill="#fff" d="M0 0h80v80H0z"/></clipPath></defs></svg>
